X: 1
T: the Black Dance   [G]
O: M.Landrin, Paris 1760
B: M.Landrin, Paris 1760
B: R.Bride "Twenty Four Country Dances for the Year 1769"
B: David Rutherford, London 1772
R: march
B: RSCDS 12-10(I)
Z: 1997 by John Chambers <jc:trillian.mit.edu>
N: "Adapted from Rutherford 1772"
M: C|
L: 1/8
K: G
dB |\
"G"G2G2 "Am"ABcA | "D7"dedc "G"B2dB |\
[1,3 "C"G2G2 "Am"ABcA | "D7"d6 dB :|\
[2,4 "Em"G2G2 "D7"ABcA | "G"G6 :|
|: ef |\
"C"g2g2 g2fe |  "G"d2d2 d2BA |\
"Em"G2AB "Bm"d2cB | "Am"A2A2 "D7"A2ef |\
"Em"g2g2 g2fe | "Bm"d2d2 d2BA |\
"C"G2AB "D7"c2BA | "G"G2G2 G2 :|
